X: 1
T:Polska fr Bjorkede, J\"amtland
R:Polska
O:Sweden
M:3/4
C:e. Oskar Andersson
A:J\"amtland
K:AMix
d3c de | (3fgf (3efe de | (3fgf (3efe (3ded | \
cd Bd Bd | B2 A4 |
a3 ^g ab | (3c'd'c' (3bc'b ab | \
(3c'd'c' (3bc'b (3aba | ^gab a4 :|
|:A2- (3ABA ^GA | FA FA FA | \
F2 F4 | E2 F4 |\
A2- (3ABA ^GA | FA FA FA | dc BA GF | E2 D4 :|
